public/topleft.svg

<svg width='128' height='107' viewBox='0 0 128 107' fill='none' xmlns='http://www.w3.org/2000/svg'><g clip-path='url(#clip0_9_79145)'><g opacity='0.71'><path d='M37.6602 70.1376L0 87.2936L37.6602 107L75.3205 87.2936L37.6602 70.1376Z' fill='#F2F6FE'/><path d='M75.3204 87.293V-10.0188L37.6602 -27.1093V70.1374L75.3204 87.293Z' fill='url(#paint0_linear_9_79145)'/><path d='M0 87.293L37.6602 70.1372V-27.1085L0 -5.135' fill='url(#paint1_linear_9_79145)'/><path d='M52.6797 47.3008L90.3399 30.145V-67.1007L52.6797 -45.1272' fill='url(#paint2_linear_9_79145)'/><path d='M90.3399 30.1417L52.6797 47.2975L90.3399 67.0039L127.999 47.2975L90.3399 30.1417Z' fill='#F2F6FE'/><path d='M128 47.3008V-50.011L90.3398 -67.1014V30.145L128 47.3008Z' fill='url(#paint3_linear_9_79145)'/><path d='M52.6797 47.3008L90.3399 30.145V-67.1006L52.6797 -45.1272' fill='url(#paint4_linear_9_79145)'/></g></g><defs><linearGradient id='paint0_linear_9_79145' x1='54.6449' y1='-42.7824' x2='85.1389' y2='87.607' gradientUnits='userSpaceOnUse'><stop stop-color='white' stop-opacity='0'/><stop offset='1' stop-color='#E0E7FD'/></linearGradient><linearGradient id='paint1_linear_9_79145' x1='23.9142' y1='28.2618' x2='-25.8544' y2='32.7577' gradientUnits='userSpaceOnUse'><stop stop-color='white'/><stop offset='1' stop-color='#E0E7FD'/></linearGradient><linearGradient id='paint2_linear_9_79145' x1='76.5939' y1='-11.7304' x2='26.8253' y2='-7.23448' gradientUnits='userSpaceOnUse'><stop stop-color='white'/><stop offset='1' stop-color='#E0E7FD'/></linearGradient><linearGradient id='paint3_linear_9_79145' x1='107.325' y1='-82.7745' x2='137.819' y2='47.6148' gradientUnits='userSpaceOnUse'><stop stop-color='white' stop-opacity='0'/><stop offset='1' stop-color='#E0E7FD'/></linearGradient><linearGradient id='paint4_linear_9_79145' x1='76.5939' y1='-11.7304' x2='26.8253' y2='-7.23447' gradientUnits='userSpaceOnUse'><stop stop-color='white' stop-opacity='0'/><stop offset='1' stop-color='#E0E7FD'/></linearGradient><clipPath id='clip0_9_79145'><rect width='128' height='107' fill='white' transform='matrix(1 0 0 -1 0 107)'/></clipPath></defs></svg>

<svg xmlns="http://www.w3.org/2000/svg" width="128" height="107" fill="none" viewBox="0 0 128 107"><g clip-path="url(#a)" opacity=".71"><path fill="#f2f6fe" d="M37.66 70.138 0 87.294 37.66 107l37.66-19.706z"/><path fill="url(#b)" d="M75.32 87.293v-97.312l-37.66-17.09v97.246z"/><path fill="url(#c)" d="m0 87.293 37.66-17.156v-97.245L0-5.135"/><path fill="url(#d)" d="m52.68 47.3 37.66-17.155v-97.246L52.68-45.127"/><path fill="#f2f6fe" d="M90.34 30.142 52.68 47.298l37.66 19.706 37.659-19.707z"/><path fill="url(#e)" d="M128 47.3V-50.01l-37.66-17.09v97.246z"/><path fill="url(#f)" d="m52.68 47.3 37.66-17.155v-97.246L52.68-45.127"/></g><defs><linearGradient id="b" x1="54.645" x2="85.139" y1="-42.782" y2="87.607" gradientUnits="userSpaceOnUse"><stop stop-color="#fff" stop-opacity="0"/><stop offset="1" stop-color="#e0e7fd"/></linearGradient><linearGradient id="c" x1="23.914" x2="-25.854" y1="28.262" y2="32.758" gradientUnits="userSpaceOnUse"><stop stop-color="#fff"/><stop offset="1" stop-color="#e0e7fd"/></linearGradient><linearGradient id="d" x1="76.594" x2="26.825" y1="-11.73" y2="-7.234" gradientUnits="userSpaceOnUse"><stop stop-color="#fff"/><stop offset="1" stop-color="#e0e7fd"/></linearGradient><linearGradient id="e" x1="107.325" x2="137.819" y1="-82.775" y2="47.615" gradientUnits="userSpaceOnUse"><stop stop-color="#fff" stop-opacity="0"/><stop offset="1" stop-color="#e0e7fd"/></linearGradient><linearGradient id="f" x1="76.594" x2="26.825" y1="-11.73" y2="-7.234" gradientUnits="userSpaceOnUse"><stop stop-color="#fff" stop-opacity="0"/><stop offset="1" stop-color="#e0e7fd"/></linearGradient><clipPath id="a"><path fill="#fff" d="M0 107h128V0H0z"/></clipPath></defs></svg>
